symbols/web/developer_board/materialsymbolsoutlined/developer_board_wght700grad200fill1_24px.svg

<svg xmlns="http://www.w3.org/2000/svg" height="24" width="24"><path d="M3.95 22.15q-1.425 0-2.412-.987Q.55 20.175.55 18.75V5.225q0-1.425.988-2.413.987-.987 2.412-.987h13.475q1.425 0 2.413.987.987.988.987 2.413V7h2.625v2.625h-2.625v1.05h2.625v2.65h-2.625v1.05h2.625V17h-2.625v1.75q0 1.425-.987 2.413-.988.987-2.413.987ZM5.7 17h5v-4h-5Zm6-7h4V7h-4Zm-6 2h5V7h-5Zm6 5h4v-6h-4Z"/></svg>

<svg xmlns="http://www.w3.org/2000/svg" height="24" width="24"><path d="M3.95 22.15Q2.525 22.15 1.538 21.163Q0.55 20.175 0.55 18.75V5.225Q0.55 3.8 1.538 2.812Q2.525 1.825 3.95 1.825H17.425Q18.85 1.825 19.838 2.812Q20.825 3.8 20.825 5.225V7H23.45V9.625H20.825V10.675H23.45V13.325H20.825V14.375H23.45V17H20.825V18.75Q20.825 20.175 19.838 21.163Q18.85 22.15 17.425 22.15ZM5.7 17H10.7V13H5.7ZM11.7 10H15.7V7H11.7ZM5.7 12H10.7V7H5.7ZM11.7 17H15.7V11H11.7Z"/></svg>
